communes/5933.svg

<?xml version="1.0" encoding="UTF-8" standalone="no"?>
<svg
   xmlns:dc="http://purl.org/dc/elements/1.1/"
   xmlns:cc="http://creativecommons.org/ns#"
   xmlns:rdf="http://www.w3.org/1999/02/22-rdf-syntax-ns#"
   xmlns:svg="http://www.w3.org/2000/svg"
   xmlns="http://www.w3.org/2000/svg"
   xmlns:xlink="http://www.w3.org/1999/xlink"
   xmlns:sodipodi="http://sodipodi.sourceforge.net/DTD/sodipodi-0.dtd"
   xmlns:inkscape="http://www.inkscape.org/namespaces/inkscape"
   height="763"
   width="603"
   version="1.0"
   id="svg20"
   sodipodi:version="0.32"
   inkscape:version="0.46"
   sodipodi:docname="Valeyres-sous-Montagny-coat_of_arms.svg"
   sodipodi:docbase="C:\Documents and Settings\Steve\Bureau\Blason Villages Suisse pour Wikipédia (par Delta-9)"
   inkscape:output_extension="org.inkscape.output.svg.inkscape">
  <metadata
     id="metadata31">
    <rdf:RDF>
      <cc:Work
         rdf:about="">
        <dc:format>image/svg+xml</dc:format>
        <dc:type
           rdf:resource="http://purl.org/dc/dcmitype/StillImage" />
        <dc:date>07-AUG-2006</dc:date>
        <dc:creator>
          <cc:Agent>
            <dc:title>Jérôme BLUM (wagner51)</dc:title>
          </cc:Agent>
        </dc:creator>
        <cc:license
           rdf:resource="http://creativecommons.org/licenses/GPL/2.0/" />
        <dc:coverage />
        <dc:description>Gabarit pour le Projet:Blasons de WIkipédia</dc:description>
        <dc:subject>
          <rdf:Bag>
            <rdf:li>blason suisse modèle gabarit projet blasons</rdf:li>
          </rdf:Bag>
        </dc:subject>
        <dc:language>fr</dc:language>
        <dc:title>Gabrit d'un blason suisse</dc:title>
      </cc:Work>
      <cc:License
         rdf:about="http://creativecommons.org/licenses/GPL/2.0/">
        <cc:permits
           rdf:resource="http://web.resource.org/cc/Reproduction" />
        <cc:permits
           rdf:resource="http://web.resource.org/cc/Distribution" />
        <cc:requires
           rdf:resource="http://web.resource.org/cc/Notice" />
        <cc:permits
           rdf:resource="http://web.resource.org/cc/DerivativeWorks" />
        <cc:requires
           rdf:resource="http://web.resource.org/cc/ShareAlike" />
        <cc:requires
           rdf:resource="http://web.resource.org/cc/SourceCode" />
      </cc:License>
    </rdf:RDF>
  </metadata>
  <defs
     id="defs29"><inkscape:perspective
   sodipodi:type="inkscape:persp3d"
   inkscape:vp_x="0 : 381.5 : 1"
   inkscape:vp_y="0 : 1000 : 0"
   inkscape:vp_z="603 : 381.5 : 1"
   inkscape:persp3d-origin="301.5 : 254.33333 : 1"
   id="perspective28" />
<linearGradient
   id="linearGradient2893">
  <stop
     style="stop-color:#ffffff;stop-opacity:0.3137255;"
     offset="0"
     id="stop2895" />
  <stop
     id="stop2897"
     offset="0.19"
     style="stop-color:#ffffff;stop-opacity:0.25098041;" />
  <stop
     style="stop-color:#6b6b6b;stop-opacity:0.1254902;"
     offset="0.60000002"
     id="stop2901" />
  <stop
     style="stop-color:#000000;stop-opacity:0.1254902;"
     offset="1"
     id="stop2899" />
</linearGradient>
<linearGradient
   id="linearGradient2955">
  <stop
     style="stop-color:white;stop-opacity:0;"
     offset="0"
     id="stop2965" />
  <stop
     style="stop-color:black;stop-opacity:0.64583331;"
     offset="1"
     id="stop2959" />
</linearGradient>
<radialGradient
   inkscape:collect="always"
   xlink:href="#linearGradient2893"
   id="radialGradient3236"
   gradientUnits="userSpaceOnUse"
   gradientTransform="matrix(1.215027,1.531577e-24,1.464684e-23,1.266667,-839.1924,-490.4894)"
   cx="858.04236"
   cy="579.93323"
   fx="858.04236"
   fy="579.93323"
   r="300" />
<inkscape:perspective
   id="perspective2508"
   inkscape:persp3d-origin="297.63751 : 280.63 : 1"
   inkscape:vp_z="595.27502 : 420.94501 : 1"
   inkscape:vp_y="0 : 1000 : 0"
   inkscape:vp_x="0 : 420.94501 : 1"
   sodipodi:type="inkscape:persp3d" />

	
	
	

	

		
			
		
		
		
		
			
		
			
		
			
		
			
		
			
		
			
	
		
		
		
	
		
		
			
		
			
		
			
	
			
				
			
				
		</defs>
  <sodipodi:namedview
     inkscape:window-height="968"
     inkscape:window-width="1280"
     inkscape:pageshadow="2"
     inkscape:pageopacity="0.0"
     guidetolerance="10.0"
     gridtolerance="10.0"
     objecttolerance="10.0"
     borderopacity="1.0"
     bordercolor="#666666"
     pagecolor="#ffffff"
     id="base"
     inkscape:zoom="0.87770295"
     inkscape:cx="332.75812"
     inkscape:cy="380.57964"
     inkscape:window-x="1280"
     inkscape:window-y="22"
     inkscape:current-layer="layer2"
     showgrid="false"
     showguides="true"
     inkscape:guide-bbox="true">
    <sodipodi:guide
       orientation="horizontal"
       position="761.5"
       id="guide1885" />
    <sodipodi:guide
       orientation="vertical"
       position="1.5"
       id="guide1887" />
    <sodipodi:guide
       orientation="horizontal"
       position="1.5"
       id="guide1889" />
    <sodipodi:guide
       orientation="vertical"
       position="601.5"
       id="guide1891" />
    <sodipodi:guide
       orientation="vertical"
       position="301.50081"
       id="guide1893" />
  </sodipodi:namedview>
  <desc
     id="desc22">Coat of Arms of Canton of Freiburg (Fribourg)</desc>
  <g
     inkscape:groupmode="layer"
     id="layer1"
     inkscape:label="Fond écu"
     style="opacity:1;display:inline"
     sodipodi:insensitive="true">
    <path
       id="path1899"
       d="M 1.5,1.49998 L 1.5,460.3679 C 1.5,626.6785 135.81456,761.5 301.49999,761.5 C 467.18543,761.5 601.5,626.6785 601.5,460.3679 L 601.5,1.49998 L 1.5,1.49998 z"
       style="fill:#2b5df2;fill-opacity:1" />
  </g>
  <g
     inkscape:groupmode="layer"
     id="layer2"
     inkscape:label="Meubles"
     style="opacity:1;display:inline"
     sodipodi:insensitive="true">
    <g
       id="g2621">
      <path
         style="fill:#fcef3c;stroke:#000000;stroke-width:3;stroke-linecap:round;stroke-linejoin:round"
         id="path3163"
         sodipodi:nodetypes="csscsscsscsscsscsscsss"
         d="M 168.1921,535.12922 C 172.1881,526.16222 189.1741,538.82922 200.7591,549.73122 C 228.6761,576.00222 246.4831,569.85822 258.0671,559.77422 C 271.5961,547.99722 271.0171,530.90222 260.1501,517.09422 C 271.0181,503.28822 271.5991,486.19422 258.0681,474.41422 C 246.4841,464.33022 229.8931,461.59122 201.9761,487.86022 C 190.3911,498.76122 182.0211,506.65622 177.1611,501.95922 C 172.4531,497.11122 180.3461,488.74022 191.2471,477.15522 C 217.5171,449.23822 214.7781,432.64822 204.6941,421.06322 C 192.9161,407.53322 175.8211,408.11422 162.0141,418.98122 C 148.2081,408.11222 131.1131,407.53322 119.3341,421.06322 C 109.2501,432.64622 106.5111,449.23822 132.7811,477.15522 C 143.6831,488.74022 151.5761,497.10922 146.8911,501.95322 C 142.0551,506.64422 133.6841,498.75022 122.0991,487.84922 C 94.1821,461.57822 77.5911,464.31822 66.0071,474.40122 C 52.4771,486.17922 53.0571,503.27522 63.9241,517.08222 C 53.0551,530.88822 52.4761,547.98322 66.0061,559.76222 C 77.5901,569.84622 94.9101,574.53122 122.8271,548.25922 C 134.4121,537.35822 143.3901,533.11322 153.6931,534.87522 C 138.6061,585.84222 158.4491,628.48522 176.4161,654.24422 C 181.3741,661.35122 190.4631,643.64622 186.9641,639.00622 C 167.9071,613.73222 154.4741,565.92222 168.1921,535.12922 z" />
      <path
         style="fill:#fcef3c;stroke:#000000;stroke-width:3;stroke-linecap:round;stroke-linejoin:round"
         id="path3203"
         sodipodi:nodetypes="cc"
         d="M 176.2701,654.02022 C 173.7101,644.86322 181.3281,636.98822 186.3601,638.82522" />
      <path
         d="M 161.70064,507.77336 C 164.80864,487.65536 159.43064,463.49436 161.94364,443.58536"
         sodipodi:nodetypes="cc"
         id="path3241"
         style="fill:none;stroke:#000000;stroke-width:3;stroke-linecap:round;stroke-linejoin:round" />
      <path
         d="M 174.37464,517.95236 C 194.49264,521.06136 218.65364,515.68436 238.56164,518.19536"
         sodipodi:nodetypes="cc"
         id="path3245"
         style="fill:none;stroke:#000000;stroke-width:3;stroke-linecap:round;stroke-linejoin:round" />
      <path
         d="M 149.20564,518.71836 C 129.08764,515.61136 104.92664,520.98836 85.01864,518.47536"
         sodipodi:nodetypes="cc"
         id="path3249"
         style="fill:none;stroke:#000000;stroke-width:3;stroke-linecap:round;stroke-linejoin:round" />
    </g>
    <path
       style="fill:#ffffff"
       d="M 1.5,97.183 C 17.816,102.581 33.516,104.957 53.141,126.582 C 87.064,163.965 64.872,184.105 98.796,221.488 C 132.721,258.87 154.913,238.73 188.838,276.112 C 222.76,313.492 200.567,333.632 234.492,371.014 C 268.416,408.396 290.609,388.257 324.531,425.638 C 358.456,463.019 336.263,483.159 370.187,520.54 C 404.113,557.923 426.305,537.782 460.228,575.161 C 494.149,612.544 471.958,632.682 505.882,670.067 C 507.709,672.079 509.501,673.924 511.264,675.622 C 541.11,646.313 564.896,610.814 580.532,571.178 L 580.531,571.177 C 566.388,544.757 576.225,525.71 548.445,495.101 C 514.523,457.722 492.334,477.859 458.414,440.478 C 424.489,403.097 446.677,382.958 412.755,345.579 C 378.83,308.196 356.643,328.334 322.716,290.951 C 288.794,253.572 310.985,233.434 277.061,196.053 C 243.137,158.671 220.947,178.81 187.021,141.427 C 153.097,104.044 175.288,83.906 141.363,46.525 C 110.834,12.883 89.806,25.815 61.181,1.5 L 1.5,1.5 L 1.5,97.183 z"
       id="path2488" />
    <path
       style="fill:none;stroke:#000000;stroke-width:3"
       id="path2488_1_"
       d="M 580.53,571.177 C 566.387,544.757 576.224,525.71 548.444,495.101 C 514.522,457.722 492.333,477.859 458.413,440.478 C 424.488,403.097 446.676,382.958 412.754,345.579 C 378.829,308.196 356.642,328.334 322.715,290.951 C 288.793,253.572 310.984,233.434 277.06,196.053 C 243.136,158.671 220.946,178.81 187.02,141.427 C 153.096,104.044 175.287,83.906 141.362,46.525 C 110.834,12.883 89.806,25.815 61.181,1.5" />
    <path
       style="fill:none;stroke:#000000;stroke-width:3"
       id="path2490_1_"
       d="M 1.5,97.183 C 17.816,102.581 33.516,104.957 53.141,126.582 C 87.064,163.965 64.872,184.105 98.796,221.488 C 132.721,258.87 154.913,238.73 188.838,276.112 C 222.76,313.492 200.567,333.632 234.492,371.014 C 268.416,408.396 290.609,388.257 324.531,425.638 C 358.456,463.019 336.263,483.159 370.187,520.54 C 404.113,557.923 426.305,537.782 460.228,575.161 C 494.149,612.544 471.958,632.682 505.882,670.067 C 507.709,672.079 509.501,673.924 511.264,675.622" />
    <g
       id="g2609">
      <path
         d="M 490.88742,271.07425 C 506.26342,255.19825 530.20642,245.18725 532.85842,212.90425 L 533.10342,164.30625 C 535.75742,149.91425 537.92242,140.38825 546.84842,120.61725 C 555.74442,100.91125 536.50342,98.216254 524.67642,112.57725 C 515.48842,123.72925 502.82742,141.13425 504.41742,174.39725 C 504.53142,176.75125 502.70042,175.85125 501.94242,175.69925 C 497.40042,146.82025 495.24742,91.551254 494.08542,52.629254 C 493.77642,42.356254 488.31042,37.779254 481.60942,37.604254 C 477.75842,37.503254 472.47942,38.892254 470.78542,46.164254 C 470.27842,34.415254 466.00442,26.573254 456.34042,26.349254 C 451.77742,26.244254 445.62342,29.493254 444.38242,38.492254 C 443.89642,42.020254 443.73742,46.358254 443.58142,53.208254 C 443.76342,43.326254 440.68042,37.201254 432.38242,37.183254 C 426.93142,37.170254 421.30742,40.986254 421.04642,52.012254 C 420.96742,55.292254 420.77042,56.414254 420.68942,61.092254 C 420.47642,57.599254 417.35742,54.931254 411.10942,55.174254 C 406.09942,55.372254 402.14342,59.381254 401.25742,66.536254 C 399.71742,78.995254 397.36842,113.37725 396.17542,131.38025 C 395.73742,138.01925 391.71542,140.50625 390.42742,154.35425 L 387.58342,217.00625 C 386.03942,243.67825 398.49742,255.69925 410.40942,268.76525 L 410.62642,300.77525 C 411.42442,309.44525 492.15742,309.73125 491.86842,301.26625 L 490.88742,271.07425 z"
         sodipodi:nodetypes="ccczsscsscsscsscssscccccc"
         id="path3209"
         style="fill:#fcef3c;stroke:#000000;stroke-width:3;stroke-linecap:round;stroke-linejoin:round" />
      <path
         d="M 420.69342,61.118254 L 420.69342,124.93425"
         id="path3211"
         style="fill:none;stroke:#000000;stroke-width:3;stroke-linecap:round;stroke-linejoin:round" />
      <path
         d="M 443.58942,52.097254 L 443.58942,115.91325"
         id="path3213"
         style="fill:none;stroke:#000000;stroke-width:3;stroke-linecap:round;stroke-linejoin:round" />
      <path
         d="M 470.77642,46.380254 L 470.77642,110.19625"
         id="path3215"
         style="fill:none;stroke:#000000;stroke-width:3;stroke-linecap:round;stroke-linejoin:round" />
      <path
         d="M 451.51442,222.30125 C 458.24342,183.54225 497.57742,177.79325 509.19442,174.68425"
         sodipodi:nodetypes="cc"
         id="path3217"
         style="fill:none;stroke:#000000;stroke-width:3;stroke-linecap:round;stroke-linejoin:round" />
      <path
         d="M 424.16842,270.18025 C 447.68642,260.23525 451.57642,281.88025 475.95742,273.12525"
         sodipodi:nodetypes="cc"
         id="path3219"
         style="fill:none;stroke:#000000;stroke-width:3;stroke-linecap:round;stroke-linejoin:round" />
      <path
         d="M 410.64742,300.18125 C 410.45442,291.25525 491.65642,292.50325 491.85542,300.63925"
         sodipodi:nodetypes="cc"
         id="path3221"
         style="fill:none;stroke:#000000;stroke-width:3;stroke-linecap:round;stroke-linejoin:round" />
      <path
         d="M 417.82742,127.13025 C 420.49242,125.05325 423.09542,123.57025 424.94542,122.95725"
         sodipodi:nodetypes="cc"
         id="path3223"
         style="fill:none;stroke:#000000;stroke-width:3;stroke-linecap:round;stroke-linejoin:round" />
      <path
         d="M 439.79442,117.68025 C 442.89042,116.09425 444.81642,115.83825 447.46542,115.65525"
         sodipodi:nodetypes="cc"
         id="path3225"
         style="fill:none;stroke:#000000;stroke-width:3;stroke-linecap:round;stroke-linejoin:round" />
      <path
         d="M 467.40742,111.78925 C 470.68542,111.12325 471.14042,111.17425 473.97242,111.29825"
         sodipodi:nodetypes="cc"
         id="path3227"
         style="fill:none;stroke:#000000;stroke-width:3;stroke-linecap:round;stroke-linejoin:round" />
    </g>
  </g>
  <g
     inkscape:groupmode="layer"
     id="layer3"
     inkscape:label="Reflet final"
     style="display:inline"
     sodipodi:insensitive="true">
    <path
       style="fill:url(#radialGradient3236);fill-opacity:1"
       d="M 1.5,1.5 L 1.5,460.3679 C 1.5,626.67854 135.81454,761.5 301.49993,761.5 C 467.1854,761.5 601.5,626.67854 601.5,460.3679 L 601.5,1.5 L 1.5,1.5 z "
       id="path2346" />
  </g>
  <g
     inkscape:groupmode="layer"
     id="layer4"
     inkscape:label="Contour final"
     style="display:inline"
     sodipodi:insensitive="true">
    <path
       style="fill:none;fill-opacity:1;stroke:#000000;stroke-width:3;stroke-miterlimit:4;stroke-dasharray:none;stroke-opacity:1"
       d="M 1.5,1.5 L 1.5,460.36794 C 1.5,626.67854 135.81454,761.5 301.49993,761.5 C 467.1854,761.5 601.5,626.67854 601.5,460.36794 L 601.5,1.5 L 1.5,1.5 z "
       id="path3239" />
  </g>
</svg>

<?xml version="1.0" encoding="UTF-8"?>
<svg version="1.0" viewBox="0 0 603 763" xmlns="http://www.w3.org/2000/svg" xmlns:cc="http://creativecommons.org/ns#" xmlns:dc="http://purl.org/dc/elements/1.1/" xmlns:rdf="http://www.w3.org/1999/02/22-rdf-syntax-ns#" xmlns:xlink="http://www.w3.org/1999/xlink">
<metadata>
<rdf:RDF>
<cc:Work rdf:about="">
<dc:format>image/svg+xml</dc:format>
<dc:type rdf:resource="http://purl.org/dc/dcmitype/StillImage"/>
<dc:date>07-AUG-2006</dc:date>
<dc:creator>
<cc:Agent>
<dc:title>Jérôme BLUM (wagner51)</dc:title>
</cc:Agent>
</dc:creator>
<cc:license rdf:resource="http://creativecommons.org/licenses/GPL/2.0/"/>
<dc:coverage/>
<dc:description>Gabarit pour le Projet:Blasons de WIkipédia</dc:description>
<dc:subject>
<rdf:Bag>
<rdf:li>blason suisse modèle gabarit projet blasons</rdf:li>
</rdf:Bag>
</dc:subject>
<dc:language>fr</dc:language>
<dc:title>Gabrit d'un blason suisse</dc:title>
</cc:Work>
<cc:License rdf:about="http://creativecommons.org/licenses/GPL/2.0/">
<cc:permits rdf:resource="http://web.resource.org/cc/Reproduction"/>
<cc:permits rdf:resource="http://web.resource.org/cc/Distribution"/>
<cc:requires rdf:resource="http://web.resource.org/cc/Notice"/>
<cc:permits rdf:resource="http://web.resource.org/cc/DerivativeWorks"/>
<cc:requires rdf:resource="http://web.resource.org/cc/ShareAlike"/>
<cc:requires rdf:resource="http://web.resource.org/cc/SourceCode"/>
</cc:License>
</rdf:RDF>
</metadata>
<defs>
<radialGradient id="a" cx="858.04" cy="579.93" r="300" gradientTransform="matrix(1.215 1.5316e-24 1.4647e-23 1.2667 -839.19 -490.49)" gradientUnits="userSpaceOnUse">
<stop stop-color="#fff" stop-opacity=".31373" offset="0"/>
<stop stop-color="#fff" stop-opacity=".25098" offset=".19"/>
<stop stop-color="#6b6b6b" stop-opacity=".12549" offset=".6"/>
<stop stop-opacity=".12549" offset="1"/>
</radialGradient>
</defs>
<desc>Coat of Arms of Canton of Freiburg (Fribourg)</desc>
<g>
<path d="m1.5 1.5v458.87c0 166.31 134.31 301.13 300 301.13 165.69 0 300-134.82 300-301.13v-458.87h-600z" fill="#2b5df2"/>
<g stroke="#000" stroke-linecap="round" stroke-linejoin="round" stroke-width="3">
<path d="m168.19 535.13c3.996-8.967 20.982 3.7 32.567 14.602 27.917 26.271 45.724 20.127 57.308 10.043 13.529-11.777 12.95-28.872 2.083-42.68 10.868-13.806 11.449-30.9-2.082-42.68-11.584-10.084-28.175-12.823-56.092 13.446-11.585 10.901-19.955 18.796-24.815 14.099-4.708-4.848 3.185-13.219 14.086-24.804 26.27-27.917 23.531-44.507 13.447-56.092-11.778-13.53-28.873-12.949-42.68-2.082-13.806-10.869-30.901-11.448-42.68 2.082-10.084 11.583-12.823 28.175 13.447 56.092 10.902 11.585 18.795 19.954 14.11 24.798-4.836 4.691-13.207-3.203-24.792-14.104-27.917-26.271-44.508-23.531-56.092-13.448-13.53 11.778-12.95 28.874-2.083 42.681-10.869 13.806-11.448 30.901 2.082 42.68 11.584 10.084 28.904 14.769 56.821-11.503 11.585-10.901 20.563-15.146 30.866-13.384-15.087 50.967 4.756 93.61 22.723 119.37 4.958 7.107 14.047-10.598 10.548-15.238-19.057-25.274-32.49-73.084-18.772-103.88z" fill="#fcef3c"/>
<path d="m176.27 654.02c-2.56-9.157 5.058-17.032 10.09-15.195" fill="#fcef3c"/>
<path d="m161.7 507.77c3.108-20.118-2.27-44.279 0.243-64.188" fill="none"/>
<path d="m174.37 517.95c20.118 3.109 44.279-2.268 64.187 0.243" fill="none"/>
<path d="m149.21 518.72c-20.118-3.107-44.279 2.27-64.187-0.243" fill="none"/>
</g>
<path d="m1.5 97.183c16.316 5.398 32.016 7.774 51.641 29.399 33.923 37.383 11.731 57.523 45.655 94.906 33.925 37.382 56.117 17.242 90.042 54.624 33.922 37.38 11.729 57.52 45.654 94.902 33.924 37.382 56.117 17.243 90.039 54.624 33.925 37.381 11.732 57.521 45.656 94.902 33.926 37.383 56.118 17.242 90.041 54.621 33.921 37.383 11.73 57.521 45.654 94.906 1.827 2.012 3.619 3.857 5.382 5.555 29.846-29.309 53.632-64.808 69.268-104.44l-1e-3 -1e-3c-14.143-26.42-4.306-45.467-32.086-76.076-33.922-37.379-56.111-17.242-90.031-54.623-33.925-37.381-11.737-57.52-45.659-94.899-33.925-37.383-56.112-17.245-90.039-54.628-33.922-37.379-11.731-57.517-45.655-94.898-33.924-37.382-56.114-17.243-90.04-54.626-33.924-37.383-11.733-57.521-45.658-94.902-30.529-33.642-51.557-20.71-80.182-45.025h-59.681v95.683z" fill="#fff"/>
<path d="m580.53 571.18c-14.143-26.42-4.306-45.467-32.086-76.076-33.922-37.379-56.111-17.242-90.031-54.623-33.925-37.381-11.737-57.52-45.659-94.899-33.925-37.383-56.112-17.245-90.039-54.628-33.922-37.379-11.731-57.517-45.655-94.898-33.924-37.382-56.114-17.243-90.04-54.626-33.924-37.383-11.733-57.521-45.658-94.902-30.528-33.642-51.556-20.71-80.181-45.025" fill="none" stroke="#000" stroke-width="3"/>
<path d="m1.5 97.183c16.316 5.398 32.016 7.774 51.641 29.399 33.923 37.383 11.731 57.523 45.655 94.906 33.925 37.382 56.117 17.242 90.042 54.624 33.922 37.38 11.729 57.52 45.654 94.902 33.924 37.382 56.117 17.243 90.039 54.624 33.925 37.381 11.732 57.521 45.656 94.902 33.926 37.383 56.118 17.242 90.041 54.621 33.921 37.383 11.73 57.521 45.654 94.906 1.827 2.012 3.619 3.857 5.382 5.555" fill="none" stroke="#000" stroke-width="3"/>
<g stroke="#000" stroke-linecap="round" stroke-linejoin="round" stroke-width="3">
<path d="m490.89 271.07c15.376-15.876 39.319-25.887 41.971-58.17l0.245-48.598c2.654-14.392 4.819-23.918 13.745-43.689 8.896-19.706-10.345-22.401-22.172-8.04-9.188 11.152-21.849 28.557-20.259 61.82 0.114 2.354-1.717 1.454-2.475 1.302-4.542-28.879-6.695-84.148-7.857-123.07-0.309-10.273-5.775-14.85-12.476-15.025-3.851-0.101-9.13 1.288-10.824 8.56-0.507-11.749-4.781-19.591-14.445-19.815-4.563-0.105-10.717 3.144-11.958 12.143-0.486 3.528-0.645 7.866-0.801 14.716 0.182-9.882-2.901-16.007-11.199-16.025-5.451-0.013-11.075 3.803-11.336 14.829-0.079 3.28-0.276 4.402-0.357 9.08-0.213-3.493-3.332-6.161-9.58-5.918-5.01 0.198-8.966 4.207-9.852 11.362-1.54 12.459-3.889 46.841-5.082 64.844-0.438 6.639-4.46 9.126-5.748 22.974l-2.844 62.652c-1.544 26.672 10.914 38.693 22.826 51.759l0.217 32.01c0.798 8.67 81.531 8.956 81.242 0.491l-0.981-30.192z" fill="#fcef3c"/>
<path d="m420.69 61.118v63.816" fill="none"/>
<path d="m443.59 52.097v63.816" fill="none"/>
<path d="m470.78 46.38v63.816" fill="none"/>
<path d="m451.51 222.3c6.729-38.759 46.063-44.508 57.68-47.617" fill="none"/>
<path d="m424.17 270.18c23.518-9.945 27.408 11.7 51.789 2.945" fill="none"/>
<path d="m410.65 300.18c-0.193-8.926 81.009-7.678 81.208 0.458" fill="none"/>
<path d="m417.83 127.13c2.665-2.077 5.268-3.56 7.118-4.173" fill="none"/>
<path d="m439.79 117.68c3.096-1.586 5.022-1.842 7.671-2.025" fill="none"/>
<path d="m467.41 111.79c3.278-0.666 3.733-0.615 6.565-0.491" fill="none"/>
</g>
</g>
<g>
<path d="m1.5 1.5v458.87c0 166.31 134.31 301.13 300 301.13 165.69 0 300-134.82 300-301.13v-458.87h-600z" fill="url(#a)"/>
<path d="m1.5 1.5v458.87c0 166.31 134.31 301.13 300 301.13 165.69 0 300-134.82 300-301.13v-458.87h-600z" fill="none" stroke="#000" stroke-width="3"/>
</g>
</svg>
